Papirus/24x24/panel/copy-paused.svg

<?xml version="1.0" encoding="UTF-8" standalone="no"?>
<svg xmlns:dc="http://purl.org/dc/elements/1.1/" xmlns:cc="http://creativecommons.org/ns#" xmlns:rdf="http://www.w3.org/1999/02/22-rdf-syntax-ns#" xmlns:svg="http://www.w3.org/2000/svg" xmlns="http://www.w3.org/2000/svg" id="svg2" x="0px" y="0px" version="1.1" width="24px" viewBox="0 0 24 24" height="24px" xml:space="preserve" enable-background="new 0 0 24 24">
    <metadata id="metadata18">
        <rdf:RDF>
            <cc:Work rdf:about="">
                <dc:format>
                    image/svg+xml
                </dc:format>
                <dc:type rdf:resource="http://purl.org/dc/dcmitype/StillImage"/>
                <dc:title/>
            </cc:Work>
        </rdf:RDF>
    </metadata>
    <path id="path6" d="M 20.634766 3.0253906 L 15.017578 9.84375 L 17 11 L 21 3.3515625 L 20.634766 3.0253906 z M 6 7.5 L 2 11 L 6.375 10.375 L 8 20 L 11.392578 17.699219 L 12 17.876953 L 12 15.021484 L 10.748047 16.091797 L 7.5 8 L 6 7.5 z M 13 10.029297 L 10 11 L 11 14 L 12 13.25 L 12 13 L 12.333984 13 L 15 11 L 13 10.029297 z M 16 11.599609 L 14.363281 13 L 18 13 L 16 11.599609 z " style="opacity:0.3;fill:#ffffff"/>
    <path id="path12" fill="#ffffff" clip-rule="evenodd" fill-rule="evenodd" d="m13 14v6h3v-6h-3zm4 0v6h3v-6h-3z" style="image-rendering:optimizeQuality;shape-rendering:geometricPrecision"/>
</svg>

<?xml version="1.0" encoding="UTF-8" standalone="no"?>
<svg id="svg2" xmlns:rdf="http://www.w3.org/1999/02/22-rdf-syntax-ns#" xmlns="http://www.w3.org/2000/svg" enable-background="new 0 0 24 24" xml:space="preserve" viewBox="0 0 24 24" width="24px" version="1.1" y="0px" x="0px" xmlns:cc="http://creativecommons.org/ns#" height="24px" xmlns:dc="http://purl.org/dc/elements/1.1/">
    <metadata id="metadata18">
        <rdf:RDF>
            <cc:Work rdf:about="">
                <dc:format>
                    image/svg+xml
                </dc:format>
                <dc:type rdf:resource="http://purl.org/dc/dcmitype/StillImage"/>
                <dc:title/>
            </cc:Work>
        </rdf:RDF>
    </metadata>
    <path id="path6" opacity=".3" fill="#fff" d="m20.635 3.0254l-5.617 6.8184 1.982 1.1562 4-7.6484-0.365-0.3262zm-14.635 4.4746l-4 3.5 4.375-0.625 1.625 9.625 3.393-2.301 0.607 0.178v-2.856l-1.252 1.071-3.248-8.092-1.5-0.5zm7 2.529l-3 0.971 1 3 1-0.75v-0.25h0.334l2.666-2-2-0.971zm3 1.571l-1.637 1.4h3.637l-2-1.4z"/>
    <path id="path12" style="image-rendering:optimizeQuality;shape-rendering:geometricPrecision" d="m13 14v6h3v-6h-3zm4 0v6h3v-6h-3z" fill-rule="evenodd" clip-rule="evenodd" fill="#fff"/>
</svg>
